assets/img/icons/duotone-icons/Food/Wine.svg

<?xml version="1.0" encoding="UTF-8"?>
<svg width="24px" height="24px" viewBox="0 0 24 24" version="1.1" xmlns="http://www.w3.org/2000/svg" xmlns:xlink="http://www.w3.org/1999/xlink">
    <!-- Generator: Sketch 52.2 (67145) - http://www.bohemiancoding.com/sketch -->
    <title>Stockholm-icons / Food / Wine</title>
    <desc>Created with Sketch.</desc>
    <g id="Stockholm-icons-/-Food-/-Wine" stroke="none" stroke-width="1" fill="none" fill-rule="evenodd">
        <rect id="bound" x="0" y="0" width="24" height="24"></rect>
        <path d="M12.9999711,21.0076775 C14.2768414,21.0908914 15.4225108,21.8450216 16,23 L8,23 C8.57748919,21.8450216 9.72315858,21.0908914 11.0000289,21.0076775 C11.0000096,21.0051206 11,21.0025614 11,21 L11,15.5 L13,15.5 L13,21 C13,21.0025614 12.9999904,21.0051206 12.9999711,21.0076775 Z" id="Combined-Shape" fill="#335EEA" opacity="0.3"></path>
        <path d="M8,4 L7.5,8 C13.5,8 16.5,8 16.5,8 C16.4375594,7.20614914 16.2708927,5.87281581 16,4 L8,4 Z M8.28594472,2 L15.7140072,2 C16.9470152,2 17.9721494,2.92839923 18.0667168,4.13070039 L18.5415132,10.1671184 C18.816379,13.6616787 16.142506,16.712495 12.5692506,16.9813073 C12.4036601,16.9937645 12.2376417,17 12.071562,17 L11.9283899,17 C8.34457839,17 5.43932511,14.1587301 5.43932511,10.6538462 C5.43932511,10.4914241 5.44570102,10.329062 5.45843875,10.1671184 L5.9332352,4.13070039 C6.0278026,2.92839923 7.05293673,2 8.28594472,2 Z" id="Rectangle-111" fill="#335EEA"></path>
    </g>
</svg>

<svg width="24" height="24" viewBox="0 0 24 24" xmlns="http://www.w3.org/2000/svg"><g fill="none" fill-rule="evenodd"><path d="M0 0h24v24H0z"/><path d="M13 21.008A3.618 3.618 0 0116 23H8a3.618 3.618 0 013-1.992V15.5h2v5.508z" fill="#335EEA" opacity=".3"/><path d="M8 4l-.5 4h9c-.062-.794-.23-2.127-.5-4H8zm.286-2h7.428c1.233 0 2.258.928 2.353 2.13l.475 6.037c.274 3.495-2.4 6.545-5.973 6.814a6.634 6.634 0 01-.497.019h-.144c-3.583 0-6.489-2.841-6.489-6.346 0-.163.007-.325.02-.487l.474-6.036C6.028 2.928 7.053 2 8.286 2z" fill="#335EEA"/></g></svg>
